X: 42
T:John Lockes Polka
M:4/4
L:1/8
Q:1/4=150
K:G
Bd|gdBG DGBd|gfed cBcB|cafd cafd|cdef agBd|
gdBG DGBd|gfed cBcB|cafd cdef|g2 G2 G2:||
GE|DG B2 B2 AG|EG c2 c2 e2|ceAB cdef|agfe dcBG|
DG B2 B2 AG|EG c2 c2 e2|ceAB cdef|g2 G2 G2:||
